main-pages/gulp-scss-starter/dist/img/default/offer/services2.svg

<svg width="22" height="26" viewBox="0 0 22 26" fill="none" xmlns="http://www.w3.org/2000/svg">
<path d="M13.314 6.48728C13.1211 6.72562 13.0131 7.04606 13.0131 7.3798C13.0131 7.71355 13.1211 8.03399 13.314 8.27233L14.9977 10.3124C15.1944 10.546 15.4589 10.6769 15.7344 10.6769C16.0098 10.6769 16.2743 10.546 16.471 10.3124L20.4384 5.50551C20.9676 6.92231 21.1278 8.50086 20.8977 10.0308C20.6677 11.5607 20.0582 12.9693 19.1506 14.069C18.243 15.1686 17.0804 15.907 15.8177 16.1858C14.5549 16.4645 13.2521 16.2704 12.0827 15.6293L4.81092 24.4397C4.39227 24.947 3.82445 25.2319 3.23239 25.2319C2.64032 25.2319 2.0725 24.947 1.65385 24.4397C1.2352 23.9325 1 23.2445 1 22.5272C1 21.8098 1.2352 21.1219 1.65385 20.6146L8.92564 11.8042C8.39647 10.3874 8.23625 8.80882 8.46633 7.27889C8.6964 5.74897 9.30584 4.34033 10.2134 3.24069C11.121 2.14106 12.2836 1.40267 13.5464 1.12391C14.8091 0.845157 16.112 1.03928 17.2813 1.68041L13.3245 6.47453L13.314 6.48728Z" stroke="#616161" stroke-linecap="round" stroke-linejoin="round"/>
</svg>

<svg width="22" height="26" viewBox="0 0 22 26" fill="none" xmlns="http://www.w3.org/2000/svg"><path d="M13.314 6.487c-.193.239-.3.56-.3.893 0 .334.107.654.3.892l1.684 2.04a.967.967 0 00.736.365c.276 0 .54-.131.737-.365l3.967-4.806c.53 1.416.69 2.995.46 4.525-.23 1.53-.84 2.938-1.747 4.038-.908 1.1-2.07 1.838-3.333 2.117-1.263.279-2.566.084-3.735-.557L4.81 24.44c-.419.508-.987.793-1.579.793s-1.16-.285-1.578-.792C1.235 23.932 1 23.244 1 22.527c0-.717.235-1.405.654-1.912l7.272-8.81a9.137 9.137 0 01-.46-4.526c.23-1.53.84-2.939 1.747-4.038.908-1.1 2.07-1.838 3.333-2.117 1.263-.279 2.566-.085 3.735.556l-3.956 4.795-.011.012z" stroke="#616161" stroke-linecap="round" stroke-linejoin="round"/></svg>
